X: 76
T: THE WIDOW'S DAUGHTER
B: O'Neill's 76
M: C
L: 1/8
Z: Transcribed by John Chambers <jc@trillian.mit.edu>
N: "Slow"
N: "Collected by F.O'Neill"
K:Em
(gf)"Segno"|| (edB).c (BAG).A | B2A2 A2 ((3Bcd) | e3f (gf)(e^d) | e6 Hx||
(ef) | (gfg).a (bag).f | e6 (ga) | b2(gb) (ag)(fg) | e6 g>f "Segno"||


